src/icons/ccm-with-text.svg

<svg width="168" height="56" viewBox="0 0 168 56" fill="none" xmlns="http://www.w3.org/2000/svg">
<rect width="168" height="56" fill="white"/>
<path d="M35.7992 41.1904C35.7992 41.5355 36.0791 41.8154 36.4242 41.8154H46.4977L46.5267 41.8154L46.5557 41.8154H46.8544V41.809C51.2442 41.637 54.7502 38.0239 54.7502 33.5919C54.7502 29.2799 51.4316 25.7431 47.2091 25.3963C46.9094 25.3717 46.6566 25.1546 46.5939 24.8605C45.4535 19.5117 40.7015 15.5 35.0125 15.5C28.4724 15.5 23.1706 20.8018 23.1706 27.3419C23.1706 27.4109 23.1213 27.4702 23.0537 27.4838C19.7434 28.1488 17.25 31.0725 17.25 34.5786C17.25 38.5753 20.4898 41.8152 24.4864 41.8153L32.8124 41.8154C33.1576 41.8154 33.4374 41.5355 33.4374 41.1904V39.23C33.4374 38.915 33.2023 38.6518 32.893 38.5925C31.5915 38.3429 30.4773 37.8057 29.7147 37.0371C29.0324 36.3496 28.6251 35.4979 28.4985 34.4976C28.4547 34.1514 28.7419 33.8659 29.0908 33.8675L30.4829 33.874C30.817 33.8756 31.0831 34.1427 31.1593 34.468C31.4791 35.8343 32.7156 36.7342 34.5475 36.7427C35.2613 36.7461 37.9228 36.4126 37.9314 34.5731C37.9382 33.1018 36.004 32.5438 34.174 32.0922C33.8621 32.0153 33.5442 31.9367 33.2265 31.8515C31.1566 31.3017 28.9671 30.6725 28.9794 28.0243C28.9914 25.4519 31.1566 24.1251 33.4374 23.8549V21.388C33.4374 21.0429 33.7173 20.763 34.0624 20.763H35.1719C35.5171 20.763 35.7969 21.0429 35.7969 21.388V23.9219C37.4418 24.1875 39.657 25.0202 40.0326 27.5557C40.0842 27.9039 39.7954 28.1957 39.4434 28.194L38.0445 28.1875C37.7235 28.186 37.4648 27.9376 37.3689 27.6314C37.0062 26.4731 35.8689 25.771 34.2035 25.7632C33.0957 25.758 31.4901 26.3458 31.4838 27.6884C31.4782 28.9052 32.4094 29.3198 35.8845 30.2176L36.3446 30.3351C36.4027 30.3495 36.4648 30.3644 36.5302 30.3802C37.854 30.6995 40.5704 31.3546 40.5568 34.2667C40.5461 36.5656 38.9756 38.138 36.3513 38.606C36.0384 38.6618 35.7992 38.9263 35.7992 39.2441V41.1904Z" fill="url(#paint0_linear)"/>
<path d="M69.7193 19.2535C69.4061 16.9915 67.6661 15.679 65.409 15.679C62.7492 15.679 60.7456 17.6179 60.7456 20.9091C60.7456 24.1953 62.7243 26.1392 65.409 26.1392C67.8301 26.1392 69.4359 24.5731 69.7193 22.6292L67.86 22.6193C67.6263 23.8125 66.6519 24.4836 65.4338 24.4836C63.7832 24.4836 62.6 23.2457 62.6 20.9091C62.6 18.6122 63.7733 17.3345 65.4388 17.3345C66.6767 17.3345 67.6462 18.0355 67.86 19.2535H69.7193Z" fill="black"/>
<path d="M73.1286 15.8182H71.3289V26H73.1286V15.8182Z" fill="black"/>
<path d="M78.3102 26.1491C80.5475 26.1491 81.9693 24.5731 81.9693 22.2116C81.9693 19.8451 80.5475 18.2642 78.3102 18.2642C76.073 18.2642 74.6511 19.8451 74.6511 22.2116C74.6511 24.5731 76.073 26.1491 78.3102 26.1491ZM78.3202 24.7074C77.0823 24.7074 76.4757 23.6037 76.4757 22.2067C76.4757 20.8096 77.0823 19.691 78.3202 19.691C79.5382 19.691 80.1448 20.8096 80.1448 22.2067C80.1448 23.6037 79.5382 24.7074 78.3202 24.7074Z" fill="black"/>
<path d="M88.364 22.7883C88.364 23.9517 87.5338 24.5284 86.7383 24.5284C85.8733 24.5284 85.2966 23.9169 85.2966 22.9474V18.3636H83.4968V23.2258C83.4968 25.0603 84.5409 26.0994 86.0423 26.0994C87.1858 26.0994 87.9912 25.4978 88.3392 24.6427H88.4187V26H90.1638V18.3636H88.364V22.7883Z" fill="black"/>
<path d="M94.8482 26.1342C96.1607 26.1342 96.7523 25.3537 97.0357 24.7969H97.1451V26H98.915V15.8182H97.1103V19.6264H97.0357C96.7623 19.0746 96.2005 18.2642 94.8532 18.2642C93.0883 18.2642 91.7012 19.6463 91.7012 22.1917C91.7012 24.7074 93.0485 26.1342 94.8482 26.1342ZM95.3504 24.6576C94.1622 24.6576 93.5357 23.6136 93.5357 22.1818C93.5357 20.7599 94.1522 19.7407 95.3504 19.7407C96.5087 19.7407 97.1451 20.7003 97.1451 22.1818C97.1451 23.6633 96.4988 24.6576 95.3504 24.6576Z" fill="black"/>
<path d="M113.1 19.2535C112.787 16.9915 111.047 15.679 108.79 15.679C106.13 15.679 104.126 17.6179 104.126 20.9091C104.126 24.1953 106.105 26.1392 108.79 26.1392C111.211 26.1392 112.817 24.5731 113.1 22.6292L111.241 22.6193C111.007 23.8125 110.033 24.4836 108.815 24.4836C107.164 24.4836 105.981 23.2457 105.981 20.9091C105.981 18.6122 107.154 17.3345 108.82 17.3345C110.058 17.3345 111.027 18.0355 111.241 19.2535H113.1Z" fill="black"/>
<path d="M118.041 26.1491C120.278 26.1491 121.7 24.5731 121.7 22.2116C121.7 19.8451 120.278 18.2642 118.041 18.2642C115.803 18.2642 114.382 19.8451 114.382 22.2116C114.382 24.5731 115.803 26.1491 118.041 26.1491ZM118.051 24.7074C116.813 24.7074 116.206 23.6037 116.206 22.2067C116.206 20.8096 116.813 19.691 118.051 19.691C119.269 19.691 119.875 20.8096 119.875 22.2067C119.875 23.6037 119.269 24.7074 118.051 24.7074Z" fill="black"/>
<path d="M129.263 20.3821C129.014 19.0895 127.98 18.2642 126.19 18.2642C124.351 18.2642 123.098 19.169 123.103 20.5809C123.098 21.6946 123.784 22.4304 125.251 22.7336L126.553 23.0071C127.254 23.1612 127.582 23.4446 127.582 23.8771C127.582 24.3991 127.016 24.7919 126.161 24.7919C125.335 24.7919 124.798 24.4339 124.644 23.7478L122.889 23.9169C123.113 25.3189 124.291 26.1491 126.166 26.1491C128.075 26.1491 129.422 25.1598 129.427 23.713C129.422 22.6243 128.721 21.9581 127.279 21.6449L125.977 21.3665C125.201 21.1924 124.893 20.924 124.898 20.4815C124.893 19.9645 125.465 19.6065 126.215 19.6065C127.046 19.6065 127.483 20.0589 127.622 20.5611L129.263 20.3821Z" fill="black"/>
<path d="M134.724 18.3636H133.218V16.5341H131.418V18.3636H130.334V19.7557H131.418V24.0014C131.408 25.4382 132.452 26.1442 133.804 26.1044C134.316 26.0895 134.669 25.99 134.863 25.9254L134.56 24.5184C134.461 24.5433 134.257 24.588 134.033 24.588C133.581 24.588 133.218 24.429 133.218 23.7031V19.7557H134.724V18.3636Z" fill="black"/>
<path d="M61.0041 30.8182V41H62.774V33.99H62.8685L65.6824 40.9701H67.0048L69.8188 34.0049H69.9132V41H71.6831V30.8182H69.426L66.4033 38.196H66.284L63.2612 30.8182H61.0041Z" fill="black"/>
<path d="M75.8095 41.1541C77.0077 41.1541 77.7236 40.5923 78.0517 39.951H78.1114V41H79.8415V35.8892C79.8415 33.8707 78.1959 33.2642 76.7392 33.2642C75.1334 33.2642 73.9004 33.9801 73.5027 35.3721L75.1831 35.6108C75.3621 35.0888 75.8692 34.6413 76.7492 34.6413C77.5844 34.6413 78.0418 35.0689 78.0418 35.8196V35.8494C78.0418 36.3665 77.4999 36.3913 76.1526 36.5355C74.671 36.6946 73.2541 37.1371 73.2541 38.8572C73.2541 40.3586 74.3528 41.1541 75.8095 41.1541ZM76.2769 39.8317C75.5261 39.8317 74.9892 39.4886 74.9892 38.8274C74.9892 38.1363 75.5908 37.848 76.3962 37.7336C76.8685 37.669 77.8131 37.5497 78.0467 37.3608V38.2606C78.0467 39.1108 77.3607 39.8317 76.2769 39.8317Z" fill="black"/>
<path d="M83.4509 36.5255C83.4509 35.4219 84.1171 34.7855 85.0666 34.7855C85.9963 34.7855 86.5531 35.397 86.5531 36.4162V41H88.3528V36.1378C88.3578 34.3082 87.3138 33.2642 85.7378 33.2642C84.5943 33.2642 83.8088 33.8111 83.4608 34.6612H83.3713V33.3636H81.6511V41H83.4509V36.5255Z" fill="black"/>
<path d="M92.3798 41.1541C93.578 41.1541 94.2939 40.5923 94.622 39.951H94.6817V41H96.4118V35.8892C96.4118 33.8707 94.7662 33.2642 93.3095 33.2642C91.7037 33.2642 90.4707 33.9801 90.073 35.3721L91.7534 35.6108C91.9324 35.0888 92.4395 34.6413 93.3195 34.6413C94.1547 34.6413 94.6121 35.0689 94.6121 35.8196V35.8494C94.6121 36.3665 94.0702 36.3913 92.7229 36.5355C91.2413 36.6946 89.8244 37.1371 89.8244 38.8572C89.8244 40.3586 90.9232 41.1541 92.3798 41.1541ZM92.8472 39.8317C92.0965 39.8317 91.5595 39.4886 91.5595 38.8274C91.5595 38.1363 92.1611 37.848 92.9665 37.7336C93.4388 37.669 94.3834 37.5497 94.6171 37.3608V38.2606C94.6171 39.1108 93.931 39.8317 92.8472 39.8317Z" fill="black"/>
<path d="M101.542 44.0227C103.606 44.0227 105.127 43.0781 105.127 41.1243V33.3636H103.352V34.6264H103.253C102.979 34.0746 102.408 33.2642 101.06 33.2642C99.2953 33.2642 97.9082 34.6463 97.9082 37.1569C97.9082 39.6477 99.2953 40.8906 101.055 40.8906C102.363 40.8906 102.974 40.1896 103.253 39.6278H103.342V41.0746C103.342 42.1981 102.596 42.6605 101.572 42.6605C100.489 42.6605 100.011 42.1484 99.7925 41.701L98.1717 42.0937C98.4999 43.1626 99.5986 44.0227 101.542 44.0227ZM101.557 39.4787C100.369 39.4787 99.7428 38.554 99.7428 37.147C99.7428 35.7599 100.359 34.7407 101.557 34.7407C102.716 34.7407 103.352 35.7003 103.352 37.147C103.352 38.6037 102.706 39.4787 101.557 39.4787Z" fill="black"/>
<path d="M110.352 41.1491C112.132 41.1491 113.355 40.2791 113.673 38.9517L111.993 38.7628C111.749 39.4091 111.153 39.7471 110.377 39.7471C109.214 39.7471 108.443 38.9815 108.428 37.674H113.748V37.1221C113.748 34.4424 112.137 33.2642 110.258 33.2642C108.07 33.2642 106.643 34.87 106.643 37.2265C106.643 39.6228 108.05 41.1491 110.352 41.1491ZM108.433 36.4609C108.488 35.4865 109.209 34.6662 110.283 34.6662C111.317 34.6662 112.013 35.4219 112.023 36.4609H108.433Z" fill="black"/>
<path d="M115.27 41H117.07V36.3565C117.07 35.4169 117.696 34.7805 118.472 34.7805C119.233 34.7805 119.755 35.2926 119.755 36.0781V41H121.52V36.2372C121.52 35.3771 122.032 34.7805 122.902 34.7805C123.628 34.7805 124.204 35.2081 124.204 36.1527V41H126.009V35.8743C126.009 34.169 125.025 33.2642 123.623 33.2642C122.514 33.2642 121.669 33.8111 121.331 34.6612H121.251C120.958 33.7961 120.217 33.2642 119.188 33.2642C118.164 33.2642 117.398 33.7912 117.08 34.6612H116.99V33.3636H115.27V41Z" fill="black"/>
<path d="M131.215 41.1491C132.995 41.1491 134.218 40.2791 134.536 38.9517L132.856 38.7628C132.612 39.4091 132.016 39.7471 131.24 39.7471C130.077 39.7471 129.306 38.9815 129.291 37.674H134.611V37.1221C134.611 34.4424 133 33.2642 131.121 33.2642C128.933 33.2642 127.507 34.87 127.507 37.2265C127.507 39.6228 128.914 41.1491 131.215 41.1491ZM129.296 36.4609C129.351 35.4865 130.072 34.6662 131.146 34.6662C132.18 34.6662 132.876 35.4219 132.886 36.4609H129.296Z" fill="black"/>
<path d="M137.933 36.5255C137.933 35.4219 138.599 34.7855 139.549 34.7855C140.479 34.7855 141.036 35.397 141.036 36.4162V41H142.835V36.1378C142.84 34.3082 141.796 33.2642 140.22 33.2642C139.077 33.2642 138.291 33.8111 137.943 34.6612H137.854V33.3636H136.134V41H137.933V36.5255Z" fill="black"/>
<path d="M148.478 33.3636H146.972V31.5341H145.172V33.3636H144.088V34.7557H145.172V39.0014C145.162 40.4382 146.206 41.1442 147.558 41.1044C148.07 41.0895 148.423 40.99 148.617 40.9254L148.314 39.5184C148.215 39.5433 148.011 39.588 147.787 39.588C147.335 39.588 146.972 39.429 146.972 38.7031V34.7557H148.478V33.3636Z" fill="black"/>
<defs>
<linearGradient id="paint0_linear" x1="23.2768" y1="13.4911" x2="40.0893" y2="49.8369" gradientUnits="userSpaceOnUse">
<stop stop-color="#00CFDE"/>
<stop offset="1" stop-color="#05A660"/>
</linearGradient>
</defs>
</svg>

<svg width="168" height="56" fill="none" xmlns="http://www.w3.org/2000/svg"><path fill="#fff" d="M0 0h168v56H0z"/><path d="M35.8 41.19c0 .346.28.625.624.625h10.43v-.006a8.224 8.224 0 00.355-16.413.685.685 0 01-.615-.536c-1.14-5.348-5.892-9.36-11.581-9.36-6.54 0-11.842 5.302-11.842 11.842 0 .069-.05.128-.117.142a7.237 7.237 0 001.433 14.332h8.325c.346 0 .625-.28.625-.626v-1.96a.659.659 0 00-.544-.637c-1.302-.25-2.416-.787-3.178-1.556-.683-.687-1.09-1.54-1.216-2.54-.044-.346.243-.631.592-.63l1.392.007c.334.002.6.269.676.594.32 1.366 1.557 2.266 3.389 2.275.713.003 3.375-.33 3.383-2.17.007-1.471-1.927-2.03-3.757-2.48-.312-.078-.63-.156-.947-.242-2.07-.55-4.26-1.178-4.248-3.827.012-2.572 2.178-3.899 4.458-4.17v-2.466c0-.345.28-.625.625-.625h1.11c.345 0 .625.28.625.625v2.534c1.645.265 3.86 1.098 4.236 3.634.051.348-.238.64-.59.638l-1.398-.006c-.322-.002-.58-.25-.676-.557-.363-1.158-1.5-1.86-3.166-1.868-1.107-.005-2.713.583-2.72 1.925-.005 1.217.926 1.632 4.402 2.53l.46.117.185.045c1.324.32 4.04.975 4.027 3.887-.01 2.299-1.581 3.871-4.206 4.339a.658.658 0 00-.552.638v1.946z" fill="url(#paint0_linear)"/><path d="M69.72 19.253c-.314-2.262-2.054-3.574-4.311-3.574-2.66 0-4.663 1.939-4.663 5.23 0 3.286 1.978 5.23 4.663 5.23 2.421 0 4.027-1.566 4.31-3.51l-1.859-.01c-.234 1.194-1.208 1.865-2.426 1.865-1.65 0-2.834-1.238-2.834-3.575 0-2.297 1.173-3.575 2.839-3.575 1.238 0 2.207.701 2.421 1.92h1.86zM73.129 15.818h-1.8V26h1.8V15.818zM78.31 26.15c2.237 0 3.66-1.577 3.66-3.938 0-2.367-1.422-3.948-3.66-3.948-2.237 0-3.659 1.581-3.659 3.948 0 2.361 1.422 3.937 3.66 3.937zm.01-1.443c-1.238 0-1.844-1.103-1.844-2.5s.606-2.516 1.844-2.516c1.218 0 1.825 1.119 1.825 2.516s-.607 2.5-1.825 2.5zM88.364 22.788c0 1.164-.83 1.74-1.626 1.74-.865 0-1.441-.611-1.441-1.58v-4.584h-1.8v4.862c0 1.834 1.044 2.873 2.545 2.873 1.144 0 1.95-.601 2.297-1.456h.08V26h1.745v-7.636h-1.8v4.424zM94.848 26.134c1.313 0 1.904-.78 2.188-1.337h.11V26h1.769V15.818H97.11v3.808h-.074c-.274-.551-.835-1.362-2.183-1.362-1.765 0-3.152 1.382-3.152 3.928 0 2.515 1.348 3.942 3.147 3.942zm.502-1.476c-1.188 0-1.814-1.044-1.814-2.476 0-1.422.616-2.441 1.814-2.441 1.159 0 1.795.96 1.795 2.44 0 1.482-.646 2.477-1.795 2.477zM113.1 19.253c-.313-2.262-2.053-3.574-4.31-3.574-2.66 0-4.664 1.939-4.664 5.23 0 3.286 1.979 5.23 4.664 5.23 2.421 0 4.027-1.566 4.31-3.51l-1.859-.01c-.234 1.194-1.208 1.865-2.426 1.865-1.651 0-2.834-1.238-2.834-3.575 0-2.297 1.173-3.575 2.839-3.575 1.238 0 2.207.701 2.421 1.92h1.859zM118.041 26.15c2.237 0 3.659-1.577 3.659-3.938 0-2.367-1.422-3.948-3.659-3.948-2.238 0-3.659 1.581-3.659 3.948 0 2.361 1.421 3.937 3.659 3.937zm.01-1.443c-1.238 0-1.845-1.103-1.845-2.5s.607-2.516 1.845-2.516c1.218 0 1.824 1.119 1.824 2.516s-.606 2.5-1.824 2.5zM129.263 20.382c-.249-1.293-1.283-2.118-3.073-2.118-1.839 0-3.092.905-3.087 2.317-.005 1.114.681 1.85 2.148 2.153l1.302.273c.701.154 1.029.438 1.029.87 0 .522-.566.915-1.421.915-.826 0-1.363-.358-1.517-1.044l-1.755.169c.224 1.402 1.402 2.232 3.277 2.232 1.909 0 3.256-.99 3.261-2.436-.005-1.089-.706-1.755-2.148-2.068l-1.302-.279c-.776-.174-1.084-.442-1.079-.884-.005-.517.567-.875 1.317-.875.831 0 1.268.452 1.407.954l1.641-.179zM134.724 18.364h-1.506v-1.83h-1.8v1.83h-1.084v1.392h1.084V24c-.01 1.437 1.034 2.143 2.386 2.103a3.62 3.62 0 001.059-.179l-.303-1.407c-.099.025-.303.07-.527.07-.452 0-.815-.159-.815-.885v-3.947h1.506v-1.392zM61.004 30.818V41h1.77v-7.01h.094l2.814 6.98h1.323l2.814-6.965h.094V41h1.77V30.818h-2.257l-3.023 7.378h-.119l-3.023-7.378h-2.257zM75.81 41.154c1.198 0 1.914-.562 2.242-1.203h.06V41h1.73v-5.11c0-2.02-1.646-2.626-3.103-2.626-1.606 0-2.839.716-3.236 2.108l1.68.239c.18-.522.686-.97 1.566-.97.835 0 1.293.428 1.293 1.179v.03c0 .517-.542.541-1.89.685-1.481.16-2.898.602-2.898 2.322 0 1.502 1.099 2.297 2.555 2.297zm.467-1.322c-.75 0-1.288-.343-1.288-1.005 0-.69.602-.979 1.407-1.093.472-.065 1.417-.184 1.65-.373v.9c0 .85-.685 1.57-1.77 1.57zM83.45 36.526c0-1.104.667-1.74 1.617-1.74.93 0 1.486.611 1.486 1.63V41h1.8v-4.862c.005-1.83-1.04-2.874-2.615-2.874-1.144 0-1.93.547-2.277 1.397h-.09v-1.297h-1.72V41h1.8v-4.474zM92.38 41.154c1.198 0 1.914-.562 2.242-1.203h.06V41h1.73v-5.11c0-2.02-1.646-2.626-3.103-2.626-1.605 0-2.838.716-3.236 2.108l1.68.239c.18-.522.686-.97 1.567-.97.835 0 1.292.428 1.292 1.179v.03c0 .517-.542.541-1.89.685-1.48.16-2.898.602-2.898 2.322 0 1.502 1.1 2.297 2.556 2.297zm.467-1.322c-.75 0-1.287-.343-1.287-1.005 0-.69.601-.979 1.406-1.093.473-.065 1.417-.184 1.651-.373v.9c0 .85-.686 1.57-1.77 1.57zM101.542 44.023c2.064 0 3.585-.945 3.585-2.899v-7.76h-1.775v1.262h-.099c-.274-.551-.845-1.362-2.193-1.362-1.765 0-3.152 1.382-3.152 3.893 0 2.49 1.387 3.734 3.147 3.734 1.308 0 1.919-.701 2.198-1.263h.089v1.447c0 1.123-.746 1.585-1.77 1.585-1.083 0-1.561-.512-1.78-.959l-1.62.393c.328 1.069 1.427 1.929 3.37 1.929zm.015-4.544c-1.188 0-1.814-.925-1.814-2.332 0-1.387.616-2.406 1.814-2.406 1.159 0 1.795.96 1.795 2.406 0 1.457-.646 2.332-1.795 2.332zM110.352 41.15c1.78 0 3.003-.87 3.321-2.198l-1.68-.19c-.244.647-.84.985-1.616.985-1.163 0-1.934-.766-1.949-2.073h5.32v-.552c0-2.68-1.611-3.858-3.49-3.858-2.188 0-3.615 1.606-3.615 3.962 0 2.397 1.407 3.923 3.709 3.923zm-1.919-4.69c.055-.974.776-1.794 1.85-1.794 1.034 0 1.73.756 1.74 1.795h-3.59zM115.27 41h1.8v-4.644c0-.94.626-1.575 1.402-1.575.761 0 1.283.512 1.283 1.297V41h1.765v-4.763c0-.86.512-1.456 1.382-1.456.726 0 1.302.427 1.302 1.372V41h1.805v-5.126c0-1.705-.984-2.61-2.386-2.61-1.109 0-1.954.547-2.292 1.397h-.08c-.293-.865-1.034-1.397-2.063-1.397-1.024 0-1.79.527-2.108 1.397h-.09v-1.297h-1.72V41zM131.215 41.15c1.78 0 3.003-.87 3.321-2.198l-1.68-.19c-.244.647-.84.985-1.616.985-1.163 0-1.934-.766-1.949-2.073h5.32v-.552c0-2.68-1.611-3.858-3.49-3.858-2.188 0-3.614 1.606-3.614 3.962 0 2.397 1.407 3.923 3.708 3.923zm-1.919-4.69c.055-.974.776-1.794 1.85-1.794 1.034 0 1.73.756 1.74 1.795h-3.59zM137.933 36.526c0-1.104.666-1.74 1.616-1.74.93 0 1.487.611 1.487 1.63V41h1.799v-4.862c.005-1.83-1.039-2.874-2.615-2.874-1.143 0-1.929.547-2.277 1.397h-.089v-1.297h-1.72V41h1.799v-4.474zM148.478 33.364h-1.506v-1.83h-1.8v1.83h-1.084v1.392h1.084V39c-.01 1.437 1.034 2.143 2.386 2.103a3.62 3.62 0 001.059-.179l-.303-1.407c-.099.025-.303.07-.527.07-.452 0-.815-.159-.815-.885v-3.947h1.506v-1.392z" fill="#000"/><defs><linearGradient id="paint0_linear" x1="23.277" y1="13.491" x2="40.089" y2="49.837" gradientUnits="userSpaceOnUse"><stop stop-color="#00CFDE"/><stop offset="1" stop-color="#05A660"/></linearGradient></defs></svg>
